X:1
T:Title
%%score { ( 1 4 ) | ( 2 3 ) }
L:1/8
Q:1/4=114
M:6/4
K:F
V:1 treble nm="Grand Piano"
V:4 treble 
V:2 bass 
V:3 bass 
V:1
 A2 _A2 =A2 c2 A2 F2 | F2 E2 E2 E6 | [EB]2 D2 E2 C2 E2 D2 | C2 [CF]2 G2 A6 | A2 A2 A2 A2 G2 F2 | %5
w: Mrs.~H.~S.~Lehman * * * * *|||||
 [DB]2 [DB]2 [DB]2 D6 | C2 E2 C2 [DEB]2 [CFA]2 [B,CG]2 | [A,CF]12 | %8
w: |||
 [Ec]2 [Ec]2 [EG]2 [Ec] .[Ec]3 [EG]2 | [FA]2 [_Ad]2 [A=B]2 [=Ac]4 [FA]2 | %10
w: ||
 [EG] .[EG]3 [CE]2 [EG] .[EG]3 c2 | z6 G6[K:bass] | A2 A2 A2 A2 G2 F2 | %13
w: |||
 [DB]2 [DF]2 [DFG]2 [^CEA]4 [GA]2 | [^Fd]2 [Fc]2 [DFA]2 [DAc]2 [DGB]2 [DG]2 | %15
w: ||
 [CFA]2 [CEA]2 [B,EG]2 [A,CF]6 |] %16
w: |
V:2
 [F,CF]2 [F,=B,F]2 [F,CF]2 [F,A,F]2 [F,CF]2 [F,A,C]2 | .C6 z6 | z4 G,2 z6 | %3
 [F,A,]2 [A,,F,]2 [C,E,C]2 [F,C]6 | [F,CF]2 [F,CF]2 [F,CF]2 C2 B,2 [F,A,_E]2 | %5
 [B,,B,]2 [B,,F,]2 [B,,F,]2 [B,,F,B,]6 | [C,E,B,]2 [C,G,C]2 [C,E,]2 C,2 C,2 C,2 | F,12 | %8
 [C,G,]2 [C,G,]2 [C,C]2 [C,G,] .[C,G,]3 [C,C]2 | [F,C]2 [F,=B,]2 [F,D]2 [F,C]4 [F,C]2 | %10
 [C,C] .[C,C]3 [C,G,]2 [C,C] .[C,C]3 [E,G,C]2 | z6 _B,6 | %12
 [F,C]2 [F,CF]2 [F,CF]2 [F,C_E]2 [F,B,E]2 [F,A,E]2 | [B,,B,]2 [B,,B,]2 B,,2 A,,4 A,2 | %14
 [D,A,]2 [D,A,]2 D,2 G,2 G,2 B,,2 | C,2 C,2 C,2 F,6 |] %16
V:3
 x12 | [G,B,]2- [G,B,C]2 [G,B,C]2 [G,B,C]6 | %2
 [C,G,]2 [C,G,B,]2 [C,B,]2- [C,E,B,]2 [C,G,B,]2 [C,E,B,]2 | x12 | z6 .[F,_E]6 | x12 | x12 | x12 | %8
 x12 | x12 | x12 | [G,E]2 [G,=B,D]2 [G,B,]2 [C,E,]2 D,2 E,2 | x12 | x12 | x12 | x12 |] %16
V:4
 x12 | x12 | x12 | x12 | x12 | x12 | x12 | x12 | x12 | x12 | x12 | G2 F2 D2 z2[K:bass] F,2 G,2 | %12
 x12 | x12 | x12 | x12 |] %16

